src/img/Vector2.svg

<svg width="56.430176" height="41.757812" viewBox="0 0 56.4302 41.7578" fill="none" xmlns="http://www.w3.org/2000/svg" xmlns:xlink="http://www.w3.org/1999/xlink">
	<desc>
			Created with Pixso.
	</desc>
	<defs/>
	<path id="Vector" d="M52.3384 24.4268C40.3354 22.9609 35.7681 18.9043 34.8276 18.583C28.4985 14.4209 24.8818 8.45996 22.9717 1.83008C22.8799 1.5166 22.7163 1.22168 22.4902 0.963867C22.2642 0.705078 21.9805 0.488281 21.6558 0.326172C21.3306 0.164062 20.9717 0.0595703 20.5991 0.0195312C20.2266 -0.0214844 19.8486 0.00292969 19.4873 0.0898438L5.82861 3.35938C5.23486 3.50293 4.71191 3.80957 4.33887 4.23242C3.96582 4.65527 3.76318 5.17188 3.76221 5.70312L3.76221 33.6523C3.7627 34.082 3.96094 34.4941 4.31348 34.7979C4.66602 35.1016 5.14453 35.2734 5.64307 35.2734L7.52393 35.2734L7.52393 36.8945L2.82129 36.8945C2.07324 36.8945 1.35547 37.1504 0.826172 37.6064C0.297363 38.0625 0 38.6816 0 39.3262C0 39.9717 0.297363 40.5898 0.826172 41.0459C1.35547 41.502 2.07324 41.7578 2.82129 41.7578L51.7275 41.7578C52.9741 41.7568 54.1694 41.3291 55.0513 40.5693C55.9326 39.8096 56.4287 38.7793 56.4302 37.7051L56.4302 28.4443C56.4312 27.46 56.0166 26.5098 55.2632 25.7705C54.5103 25.0312 53.4702 24.5537 52.3384 24.4268ZM19.9902 1.65234C20.1094 1.62305 20.2344 1.61426 20.3574 1.62695C20.4805 1.63965 20.5991 1.67383 20.707 1.72656C20.8145 1.78027 20.9087 1.85059 20.9844 1.93555C21.0596 2.02051 21.1143 2.11816 21.1455 2.2207C22.0977 5.64941 23.6304 8.93848 25.6943 11.9814L23.7881 13.625C23.6167 13.7773 23.522 13.9824 23.5239 14.1953C23.5264 14.4072 23.625 14.6113 23.7993 14.7607C23.9741 14.9111 24.21 14.9971 24.4565 14.999C24.7031 15 24.9404 14.9189 25.1182 14.7715L26.7124 13.3965C27.4888 14.3799 28.3379 15.3193 29.2544 16.209L27.5498 17.6777C27.3779 17.8311 27.2827 18.0352 27.2847 18.248C27.2866 18.4609 27.3853 18.665 27.5601 18.8154C27.7349 18.9658 27.9712 19.0508 28.2178 19.0527C28.4648 19.0547 28.7026 18.9727 28.8799 18.8242L30.5342 17.3984C31.3438 18.1006 32.1978 18.7637 33.0928 19.3848L31.312 20.9199C31.1406 21.0732 31.0459 21.2783 31.0479 21.4902C31.0503 21.7031 31.1489 21.9062 31.3237 22.0566C31.498 22.207 31.7339 22.292 31.9805 22.2939C32.2271 22.2959 32.4644 22.2139 32.6421 22.0664L34.604 20.375C39.8115 23.4492 45.8057 25.3906 52.0737 26.0322C52.7559 26.1064 53.3838 26.3916 53.8394 26.8359C54.2949 27.2793 54.5474 27.8516 54.5488 28.4443L54.5488 33.6523L28.7476 33.6523C28.5737 33.6523 28.4028 33.6104 28.2544 33.5322L16.4819 27.2881C16.3296 27.2168 16.1611 27.1758 15.9883 27.168L5.64307 27.168L5.64307 11.7666L6.5835 11.7666C7.83008 11.7646 9.02539 11.3379 9.90723 10.5781C10.7886 9.81836 11.2847 8.78809 11.2861 7.71289L11.2861 3.73535L19.9902 1.65234ZM41.3818 35.2734L50.7871 35.2734L50.7871 36.8945L41.3818 36.8945L41.3818 35.2734ZM13.167 35.2734L15.0479 35.2734C15.5469 35.2734 16.0249 35.1016 16.3774 34.7979C16.73 34.4941 16.9282 34.082 16.9292 33.6523L16.9292 29.4287L27.269 34.9131C27.7139 35.1484 28.2256 35.2734 28.7476 35.2734L35.7388 35.2734L35.7388 36.8945L13.167 36.8945L13.167 35.2734ZM6.33203 4.92188L9.40479 4.18555L9.40479 7.71289C9.4043 8.3584 9.10645 8.97559 8.57764 9.43164C8.04883 9.8877 7.33154 10.1445 6.5835 10.1445L5.64307 10.1445L5.64307 5.70312C5.64355 5.52539 5.71094 5.35352 5.83545 5.21289C5.95947 5.07129 6.13379 4.96973 6.33203 4.92188ZM5.64307 28.7891L15.0479 28.7891L15.0488 33.6523L5.64307 33.6523L5.64307 28.7891ZM54.5488 37.7051C54.5483 38.3496 54.2505 38.9678 53.7217 39.4238C53.1929 39.8799 52.4756 40.1367 51.7275 40.1367L2.82129 40.1367C2.57227 40.1367 2.33301 40.0518 2.15625 39.8994C1.97998 39.748 1.88086 39.541 1.88086 39.3262C1.88086 39.1113 1.97998 38.9053 2.15625 38.7529C2.33301 38.6016 2.57227 38.5156 2.82129 38.5156L7.52393 38.5156C8.02246 38.5156 8.50098 38.3447 8.85352 38.04C9.20605 37.7363 9.4043 37.3242 9.40479 36.8945L9.40479 35.2734L11.2861 35.2734L11.2861 36.8945C11.2866 37.3242 11.4849 37.7363 11.8374 38.04C12.1904 38.3447 12.6685 38.5156 13.167 38.5156L35.7388 38.5156C36.2378 38.5156 36.7158 38.3447 37.0684 38.04C37.4209 37.7363 37.6196 37.3242 37.6201 36.8945L37.6201 35.2734L39.501 35.2734L39.501 36.8945C39.5015 37.3242 39.6997 37.7363 40.0527 38.04C40.4053 38.3447 40.8833 38.5156 41.3818 38.5156L50.7871 38.5156C51.2856 38.5156 51.7637 38.3447 52.1162 38.04C52.4692 37.7363 52.6675 37.3242 52.668 36.8945L52.668 35.2734L54.5488 35.2734L54.5488 37.7051Z" fill="#FFFFFF" fill-opacity="1.000000" fill-rule="evenodd"/>
</svg>

<svg width="56.43" height="41.758" fill="none" xmlns="http://www.w3.org/2000/svg"><path d="M52.338 24.427c-12.003-1.466-16.57-5.523-17.51-5.844-6.33-4.162-9.946-10.123-11.856-16.753a2.294 2.294 0 0 0-.482-.866 2.713 2.713 0 0 0-.834-.638A3.118 3.118 0 0 0 20.599.02a3.246 3.246 0 0 0-1.112.07L5.83 3.36a2.884 2.884 0 0 0-1.49.872c-.373.423-.576.94-.577 1.471v27.95c0 .429.199.841.551 1.145.353.304.832.475 1.33.475h1.88v1.621H2.822c-.748 0-1.466.256-1.995.712-.529.456-.826 1.076-.826 1.72 0 .646.297 1.264.826 1.72.53.456 1.247.712 1.995.712h48.907c1.246-.001 2.441-.429 3.323-1.189.882-.76 1.378-1.79 1.38-2.864v-9.26c0-.985-.414-1.935-1.168-2.675-.753-.739-1.793-1.216-2.925-1.343ZM19.99 1.652a1.08 1.08 0 0 1 .717.075.92.92 0 0 1 .277.209.77.77 0 0 1 .161.285c.953 3.428 2.485 6.717 4.55 9.76l-1.907 1.644a.755.755 0 0 0-.264.57.759.759 0 0 0 .275.566c.175.15.411.236.657.238.247.001.484-.08.662-.228l1.594-1.375a28.757 28.757 0 0 0 2.542 2.813l-1.704 1.469a.755.755 0 0 0-.265.57.76.76 0 0 0 .275.567c.175.15.411.236.658.238.247.002.485-.08.662-.229l1.654-1.426a30.06 30.06 0 0 0 2.559 1.987l-1.781 1.535a.757.757 0 0 0-.264.57.76.76 0 0 0 .276.567c.174.15.41.235.656.237.247.002.484-.08.662-.228l1.962-1.691c5.208 3.074 11.202 5.016 17.47 5.657.682.074 1.31.36 1.765.804.456.443.708 1.016.71 1.608v5.208H28.748c-.174 0-.345-.042-.494-.12l-11.772-6.244a1.305 1.305 0 0 0-.494-.12H5.643V11.767h.94c1.247-.002 2.442-.43 3.324-1.189.882-.76 1.378-1.79 1.38-2.865V3.735l8.703-2.083Zm21.392 33.621h9.405v1.621h-9.405v-1.62Zm-28.215 0h1.88c.5 0 .978-.171 1.33-.475.353-.304.551-.716.552-1.146V29.43l10.34 5.484c.445.235.957.36 1.479.36h6.99v1.621H13.168v-1.62ZM6.332 4.922l3.073-.736v3.527c0 .645-.299 1.263-.827 1.719-.53.456-1.246.713-1.994.713h-.94V5.703a.74.74 0 0 1 .191-.49.954.954 0 0 1 .497-.291Zm-.689 23.867h9.405v4.863H5.644V28.79Zm48.906 8.916c0 .645-.298 1.263-.827 1.719-.53.456-1.246.713-1.995.713H2.822c-.249 0-.488-.085-.665-.238a.758.758 0 0 1-.275-.573c0-.215.099-.42.275-.573.177-.151.416-.237.665-.237h4.703c.498 0 .977-.171 1.33-.476.352-.304.55-.716.55-1.145v-1.622h1.882v1.621c0 .43.199.842.551 1.146.353.305.832.476 1.33.476h22.572c.499 0 .977-.171 1.33-.476.352-.304.55-.716.551-1.145v-1.622h1.881v1.621c0 .43.199.842.552 1.146.352.305.83.476 1.329.476h9.405c.499 0 .977-.171 1.33-.476.352-.304.55-.716.551-1.145v-1.622h1.88v2.432Z" fill="#FFF" fill-rule="evenodd"/></svg>
